X:27
T:Farewell To Whalley Range
S:The Session: https://thesession.org/tunes/2410#setting55327
C:Traditional
R:slip jig
K:A
M:9/8
L:1/8
Q:1/4=113
|: "F#m"F2c BA~F- F2E| "A"F2c BAc fec| "Bm"B3 BAB c2A|1"C#m" ~B3 BAB cBA:|2 "C#m"~B3 BAB cef|]
|: "D"a3 fec fec| "E"B3 BAB cef| "Bm"a3 baf afe|1 "C#m"fec Bce fec:|2 "C#m"fec fec BAB|"A"A9|]

